usr/share/icons/biglinux-icons-material-dark/22/actions/whitebalance.svg

<svg xmlns="http://www.w3.org/2000/svg" viewBox="0 0 22 22">
  <defs id="defs3051">
    <style type="text/css" id="current-color-scheme">
      .ColorScheme-Text {
        color:#dedede;
      }
      </style>
  </defs>
 <path 
    style="fill:currentColor;fill-opacity:1;stroke:none" 
     d="M 10.5 3 L 10.5 4.8125 L 11.5 4.8125 L 11.5 3 L 10.5 3 z M 5.6875 4.96875 L 4.96875 5.6875 L 6.25 7 L 6.96875 6.25 L 5.6875 4.96875 z M 16.3125 4.96875 L 15.03125 6.25 L 15.75 7 L 17.03125 5.6875 L 16.3125 4.96875 z M 11 6 C 8.23858 6 6 8.2386 6 11 C 6 13.7614 8.23858 16 11 16 C 13.76142 16 16 13.7614 16 11 C 16 8.2386 13.76142 6 11 6 z M 11 7 A 4 4 0 0 1 15 11 A 4 4 0 0 1 11 15 A 4 4 0 0 1 7 11 A 4 4 0 0 1 11 7 z M 3 10.5 L 3 11.5 L 4.8125 11.5 L 4.8125 10.5 L 3 10.5 z M 17.1875 10.5 L 17.1875 11.5 L 19 11.5 L 19 10.5 L 17.1875 10.5 z M 6.25 15.03125 L 4.96875 16.3125 L 5.6875 17.03125 L 6.96875 15.75 L 6.25 15.03125 z M 15.75 15.03125 L 15.03125 15.75 L 16.3125 17.03125 L 17.03125 16.3125 L 15.75 15.03125 z M 10.5 17.1875 L 10.5 19 L 11.5 19 L 11.5 17.1875 L 10.5 17.1875 z "
	class="ColorScheme-Text"
    />  
</svg>

<svg xmlns="http://www.w3.org/2000/svg" viewBox="0 0 22 22">
<defs id="defs3051">
<style id="current-color-scheme" type="text/css">
.ColorScheme-Text{color:#dedede}
</style>
</defs>
<path d="M10.5 3v1.813h1V3zM5.688 4.969l-.72.718L6.25 7l.719-.75zm10.625 0L15.03 6.25l.719.75 1.281-1.312zM11 6a5 5 0 1 0 0 10 5 5 0 0 0 0-10m0 1a4 4 0 0 1 4 4 4 4 0 0 1-4 4 4 4 0 0 1-4-4 4 4 0 0 1 4-4m-8 3.5v1h1.813v-1zm14.188 0v1H19v-1zM6.25 15.031l-1.281 1.281.718.72L6.97 15.75zm9.5 0-.719.719 1.281 1.281.72-.718zm-5.25 2.156V19h1v-1.812z" class="ColorScheme-Text" style="fill:currentColor;fill-opacity:1;stroke:none"/>
</svg>
